exports/homicides-per-100000-people-per-year_v1_850x600.svg

<svg xmlns="http://www.w3.org/2000/svg" version="1.1" style="background-color:#fff;-webkit-font-smoothing:antialiased" width="850" height="600" font-family="'Helvetica Neue',Helvetica,Arial,sans-serif" font-size="18" text-rendering="optimizeLegibility"><g class="ChartTab"><g class="HeaderView"><g opacity=".8" transform="matrix(.31 0 0 .31 770 15)"><a xmlns:xlink="http://www.w3.org/1999/xlink" xlink:href="https://ourworldindata.org" target="_blank"><g><path fill="#1B2543" d="M0 0h211.2v130.1H0z"/><path fill="#E63912" d="M0 112.2h211.2v17.9H0z"/><g><path fill="none" d="M1.2 12.3h210.2v99.2H1.2z"/><path fill="#FFF" d="M37.8 32.2c0 12.7-7.7 19.4-17.1 19.4-9.7 0-16.6-7.5-16.6-18.7 0-11.7 7.3-19.3 17.1-19.3 10.1.1 16.6 7.7 16.6 18.6zm-28.6.6c0 7.9 4.3 14.9 11.8 14.9 7.5 0 11.8-6.9 11.8-15.3 0-7.3-3.8-14.9-11.8-14.9-7.9 0-11.8 7.3-11.8 15.3zM62.7 43.8c0 2.7.1 5.1.2 7.2h-4.3l-.3-4.3h-.1c-1.3 2.1-4 4.9-8.8 4.9-4.2 0-9.1-2.3-9.1-11.6V24.6h4.8v14.6c0 5 1.5 8.4 5.9 8.4 3.2 0 5.5-2.2 6.3-4.4.3-.7.4-1.6.4-2.5V24.6h4.8v19.2zM67.3 32.8c0-3.1-.1-5.8-.2-8.2h4.2l.2 5.2h.2c1.2-3.5 4.1-5.8 7.3-5.8.5 0 .9.1 1.4.2v4.5c-.5-.1-1-.2-1.6-.2-3.4 0-5.8 2.6-6.5 6.2-.1.7-.2 1.4-.2 2.2V51h-4.8V32.8zM95.4 51L86 14.2h5l4.4 18.6c1.1 4.6 2.1 9.2 2.7 12.7h.1c.6-3.7 1.8-8 3-12.8l4.9-18.5h5l4.5 18.7c1 4.4 2 8.7 2.6 12.6h.1c.8-4 1.8-8.1 3-12.7l4.9-18.5h4.9L120.6 51h-5L111 31.9c-1.1-4.7-1.9-8.3-2.4-12h-.1c-.7 3.7-1.5 7.3-2.8 12L100.4 51h-5zM154.9 37.6c0 9.8-6.8 14-13.2 14-7.2 0-12.7-5.2-12.7-13.6 0-8.8 5.8-14 13.1-14 7.7 0 12.8 5.5 12.8 13.6zm-21 .3c0 5.8 3.3 10.1 8 10.1 4.6 0 8-4.3 8-10.3 0-4.5-2.2-10.1-7.9-10.1s-8.1 5.2-8.1 10.3zM158.2 32.8c0-3.1-.1-5.8-.2-8.2h4.2l.2 5.2h.2c1.2-3.5 4.1-5.8 7.3-5.8.5 0 .9.1 1.4.2v4.5c-.5-.1-1-.2-1.6-.2-3.4 0-5.8 2.6-6.5 6.2-.1.7-.2 1.4-.2 2.2V51h-4.8V32.8zM173.5 12.3h4.8V51h-4.8V12.3zM206.5 12.3v31.9c0 2.3.1 5 .2 6.8h-4.3l-.2-4.6h-.2c-1.5 2.9-4.7 5.2-9 5.2-6.4 0-11.3-5.4-11.3-13.4-.1-8.8 5.4-14.2 11.9-14.2 4 0 6.8 1.9 8 4h.1V12.3h4.8zm-4.8 23.1c0-.6-.1-1.4-.2-2a7 7 0 00-6.9-5.6c-5 0-7.9 4.4-7.9 10.2 0 5.3 2.6 9.8 7.8 9.8 3.2 0 6.2-2.1 7.1-5.7.2-.7.2-1.3.2-2.1v-4.6zM42.8 64c.1 1.6-1.1 2.9-3.1 2.9-1.7 0-2.9-1.3-2.9-2.9 0-1.7 1.3-3 3-3 1.9 0 3 1.3 3 3zm-5.4 33.8V71.4h4.8v26.4h-4.8zM47.5 78.6c0-2.7-.1-5-.2-7.1h4.3l.3 4.4h.1c1.3-2.5 4.4-5 8.8-5 3.7 0 9.4 2.2 9.4 11.2v15.8h-4.8V82.6c0-4.3-1.6-7.8-6.1-7.8-3.2 0-5.6 2.2-6.5 4.9-.2.6-.3 1.4-.3 2.2v15.9h-4.8V78.6zM84 61.6c2.9-.4 6.3-.8 10.1-.8 6.8 0 11.7 1.6 14.9 4.6 3.3 3 5.2 7.3 5.2 13.2 0 6-1.9 10.9-5.3 14.3-3.4 3.4-9.1 5.3-16.3 5.3-3.4 0-6.2-.2-8.6-.4V61.6zm4.8 32.5c1.2.2 3 .3 4.8.3 10.2 0 15.7-5.7 15.7-15.6.1-8.7-4.9-14.2-14.9-14.2-2.5 0-4.3.2-5.6.5v29zM132.1 97.8l-.4-3.3h-.2a9.79 9.79 0 01-8.1 3.9c-5.4 0-8.1-3.8-8.1-7.6 0-6.4 5.7-9.9 15.9-9.8v-.5c0-2.2-.6-6.1-6-6.1-2.5 0-5 .8-6.9 2l-1.1-3.2c2.2-1.4 5.4-2.3 8.7-2.3 8.1 0 10.1 5.5 10.1 10.8v9.9c0 2.3.1 4.5.4 6.3h-4.3zm-.7-13.4c-5.3-.1-11.2.8-11.2 5.9 0 3.1 2.1 4.6 4.5 4.6 3.4 0 5.6-2.2 6.4-4.4.2-.5.3-1 .3-1.5v-4.6zM146.6 63.9v7.6h6.9v3.7h-6.9v14.2c0 3.3.9 5.1 3.6 5.1 1.3 0 2.2-.2 2.8-.3l.2 3.6c-.9.4-2.4.7-4.3.7-2.2 0-4-.7-5.2-2-1.4-1.4-1.9-3.8-1.9-6.9V75.1h-4.1v-3.7h4.1v-6.3l4.8-1.2zM171.4 97.8l-.4-3.3h-.2a9.79 9.79 0 01-8.1 3.9c-5.4 0-8.1-3.8-8.1-7.6 0-6.4 5.7-9.9 15.9-9.8v-.5c0-2.2-.6-6.1-6-6.1-2.5 0-5 .8-6.9 2l-1.1-3.2c2.2-1.4 5.4-2.3 8.7-2.3 8.1 0 10.1 5.5 10.1 10.8v9.9c0 2.3.1 4.5.4 6.3h-4.3zm-.7-13.4c-5.3-.1-11.2.8-11.2 5.9 0 3.1 2.1 4.6 4.5 4.6 3.4 0 5.6-2.2 6.4-4.4.2-.5.3-1 .3-1.5v-4.6z"/></g></g></a></g><a href="https://ourworldindata.org/grapher/homicides-per-100000-people-per-year" target="_blank"><text font-size="27" x="15" y="36.6" fill="#555"><tspan x="15" y="36.6">Homicides per 100,000 people per year</tspan></text></a></g><g class="LineChart"><defs><clipPath id="a"><path d="M19.07 0h830v963h-830z"/></clipPath></defs><g class="AxisBoxView"><g class="HorizontalAxis" fill="#666" text-anchor="middle" font-size="16.2"><text x="29.1" y="556.5">1800</text><text x="197.2" y="556.5">1850</text><text x="365.4" y="556.5">1900</text><text x="533.6" y="556.5">1950</text><text x="735.4" y="556.5">2010</text></g><g class="VerticalAxis" fill="#666" dominant-baseline="middle" text-anchor="end" font-size="16.2"><text x="24.07" y="535.3">0</text><text x="24.07" y="477.8">1</text><text x="24.07" y="420.2">2</text><text x="24.07" y="362.7">3</text><text x="24.07" y="305.1">4</text><text x="24.07" y="247.6">5</text><text x="24.07" y="190.1">6</text><text x="24.07" y="132.5">7</text><text x="24.07" y="75">8</text></g><g class="AxisGridLines"><path stroke="#ccc" d="M29.07 535.3h706.34"/><path stroke="#ddd" stroke-dasharray="3,2" d="M29.07 477.8h706.34M29.07 420.2h706.34M29.07 362.7h706.34M29.07 305.1h706.34M29.07 247.6h706.34M29.07 190.1h706.34M29.07 132.5h706.34M29.07 75h706.34"/></g><g class="AxisGridLines" stroke="#ddd" stroke-dasharray="3,2"><path d="M29.1 535.3V75M197.2 535.3V75M365.4 535.3V75M533.6 535.3V75M701.8 535.3V75"/></g></g><g clip-path="url(#a)"><g class="HeightedLegend clickable"><g class="legendMark"><path fill="#f6a324" d="M745.41 370.65h10v2.5h-10z"/><text font-size="14.4" x="760.4" y="376.2" fill="#333"><tspan x="760.41" y="376.22">India</tspan></text></g><g class="legendMark"><path fill="#34983f" d="M745.41 401.75h10v2.5h-10z"/><text font-size="14.4" x="760.4" y="407.3" fill="#333"><tspan x="760.41" y="407.32">Italy</tspan></text></g><g class="legendMark"><path fill="#ca2628" d="M745.41 499.55h10v2.5h-10z"/><text font-size="14.4" x="760.4" y="505.1" fill="#333"><tspan x="760.41" y="505.12">Switzerland</tspan></text></g><g class="legendMark"><path fill="#3360a9" d="M745.41 513.95h10v2.5h-10z"/><text font-size="14.4" x="760.4" y="519.5" fill="#333"><tspan x="760.41" y="519.52">Germany</tspan></text></g></g><g class="Lines"><g class="key-India_0"><path stroke="#f6a324" stroke-linecap="round" d="M540 380l4 10 3 4 3 3 4-1 3-3 4-1 3 2h7l3-2 3 13 4-9 3-4h3l4-6 3-1 4-6 3-7 3-1 4 11 3-12 3-12 4 14 3 11 3-12 4-5 3-5 4-11 3-2 3-1 4-10 3-1 3 3 4-6 3-5 3 2 4-13 3-22 4-24 3-1 3 17 4 3 3 12 3 2 4 5 3-2 3 12 4 2 3 11 4 8 3 18 3-3 4 8 3 4 3 3h4l3 4 3-2" fill="none" stroke-width="1.5"/></g><g class="key-Italy_0"><path stroke="#34983f" stroke-linecap="round" d="M29 75h165l3 58h81l3 74h81l3 104h31l3 34h3l4-28 3-23 4 23h3l3 23 4 17h3l3-75 4-167 3-34 3 34 4 29 3 98 4 17 3 40 3 64 4 5 3 12h3l4 12 3 17 3 17 4 6 3 11 4-5 3 5 3 12 4 6 37-196 3 6 3 103 4 64 3-6 3-6 4 6 3 17h4l3 6h3l27 11 4 6h6l4 6 3-12h3l4-5 3-35 3-11h4l3 11h4l3-11 3-6 4 11 3 18 3 17h4l3-17h3l4-35 3-17 4-41 3 23 3 24 4 5 3-11h3l4-6 3-12 3 12 4 17 3-17 4 12 3-6 3-6 4 29 3-17 3 11 4-6 3 6" fill="none" stroke-width="1.5"/></g><g class="key-Switzerland_0"><path stroke="#ca2628" stroke-linecap="round" d="M29 265h165l3 173h81l3-75h81l3 52h81l4 40h80l4 34 3-27 3 6 4 3 3 3 3-4 4 27 3-6 4 6 3-15 3 19 4-7 3-18 3 20 4-6 3 12 3-5 4-9 3 5 4 11 3-10 3-14 4 2 3 14 3-16 4 1 3 4 3 1 4 7 3-11 4-1 3-15 3-9 4-3 3 27 3-29 4 26 3-12 3-1 4-3 3-13 4 7 3-6 3-7 4 15 3 20 3-6 4-17 3 34 3-11 4 12 3-20 4 6 3 20 3-13 4 3 3 17 3-2" fill="none" stroke-width="1.5"/></g><g class="key-Germany_0"><path stroke="#3360a9" stroke-linecap="round" d="M29 397h165l3 52h81l3-6h81l3-28h81l4 17h80l4 40h3l3 12 4-4h3l3-3 4 5 3 2h4l3-5 3 4 4-7 3 1h3l4-6 3-2h3l4-2 3 4 4-10 3-8 3 6 4-1 3 7 3 3 4-3 3-2 3 4 4-1 3 6 4-3 3-7 3 1 4 3 3-2 3 3 4-2 3 5 3 4 4 3h3l4-8 3-2h3l4 1 3 2 3 3 4 10 3 3 3-1 4 8 3 3 4-3 3 4 3 2 4 5 3-3 3 3h7l3-2" fill="none" stroke-width="1.5"/></g></g></g></g><g class="SourcesFooter" fill="#777"><g class="clickable" fill="#777"><text font-size="12.6" x="15" y="581.6"><tspan x="15" y="581.58">Source: Clio Infra</tspan></text></g><text font-size="12.6" x="585.1" y="581.6"><tspan x="585.14" y="581.58"><a target="_blank" href="https://ourworldindata.org/homicides/" fill="#777">OurWorldInData.org/homicides/</a> • <a href="http://creativecommons.org/licenses/by-sa/4.0/deed.en_US" target="_blank" fill="#777">CC BY-SA</a></tspan></text></g></g></svg>

<svg xmlns="http://www.w3.org/2000/svg" version="1.1" style="font-family: 'Helvetica Neue', Helvetica, Arial, sans-serif; font-size: 18px; background-color: white; text-rendering: optimizeLegibility; -webkit-font-smoothing: antialiased;" width="850" height="600"><g class="ChartTab"><g class="HeaderView"><g opacity="0.8" transform="translate(770, 15) scale(0.31)"><a xmlns:xlink="http://www.w3.org/1999/xlink" xlink:href="https://ourworldindata.org" target="_blank"><g><rect x="0" y="0" fill="#1B2543" width="211.2" height="130.1"/><rect x="0" y="112.2" fill="#E63912" width="211.2" height="17.9"/><g><rect x="1.2" y="12.3" fill="none" width="210.2" height="99.2"/><path fill="#FFFFFF" d="M37.8,32.2c0,12.7-7.7,19.4-17.1,19.4c-9.7,0-16.6-7.5-16.6-18.7c0-11.7,7.3-19.3,17.1-19.3 C31.3,13.7,37.8,21.3,37.8,32.2z M9.2,32.8c0,7.9,4.3,14.9,11.8,14.9c7.5,0,11.8-6.9,11.8-15.3c0-7.3-3.8-14.9-11.8-14.9 C13.1,17.5,9.2,24.8,9.2,32.8z"/><path fill="#FFFFFF" d="M62.7,43.8c0,2.7,0.1,5.1,0.2,7.2h-4.3l-0.3-4.3h-0.1c-1.3,2.1-4,4.9-8.8,4.9c-4.2,0-9.1-2.3-9.1-11.6 V24.6h4.8v14.6c0,5,1.5,8.4,5.9,8.4c3.2,0,5.5-2.2,6.3-4.4c0.3-0.7,0.4-1.6,0.4-2.5V24.6h4.8V43.8z"/><path fill="#FFFFFF" d="M67.3,32.8c0-3.1-0.1-5.8-0.2-8.2h4.2l0.2,5.2h0.2c1.2-3.5,4.1-5.8,7.3-5.8c0.5,0,0.9,0.1,1.4,0.2v4.5 c-0.5-0.1-1-0.2-1.6-0.2c-3.4,0-5.8,2.6-6.5,6.2c-0.1,0.7-0.2,1.4-0.2,2.2V51h-4.8V32.8z"/><path fill="#FFFFFF" d="M95.4,51l-9.4-36.8h5l4.4,18.6c1.1,4.6,2.1,9.2,2.7,12.7h0.1c0.6-3.7,1.8-8,3-12.8l4.9-18.5h5l4.5,18.7 c1,4.4,2,8.7,2.6,12.6h0.1c0.8-4,1.8-8.1,3-12.7l4.9-18.5h4.9L120.6,51h-5L111,31.9c-1.1-4.7-1.9-8.3-2.4-12h-0.1 c-0.7,3.7-1.5,7.3-2.8,12L100.4,51H95.4z"/><path fill="#FFFFFF" d="M154.9,37.6c0,9.8-6.8,14-13.2,14c-7.2,0-12.7-5.2-12.7-13.6c0-8.8,5.8-14,13.1-14 C149.8,24,154.9,29.5,154.9,37.6z M133.9,37.9c0,5.8,3.3,10.1,8,10.1c4.6,0,8-4.3,8-10.3c0-4.5-2.2-10.1-7.9-10.1 C136.3,27.6,133.9,32.8,133.9,37.9z"/><path fill="#FFFFFF" d="M158.2,32.8c0-3.1-0.1-5.8-0.2-8.2h4.2l0.2,5.2h0.2c1.2-3.5,4.1-5.8,7.3-5.8c0.5,0,0.9,0.1,1.4,0.2v4.5 c-0.5-0.1-1-0.2-1.6-0.2c-3.4,0-5.8,2.6-6.5,6.2c-0.1,0.7-0.2,1.4-0.2,2.2V51h-4.8V32.8z"/><path fill="#FFFFFF" d="M173.5,12.3h4.8V51h-4.8V12.3z"/><path fill="#FFFFFF" d="M206.5,12.3v31.9c0,2.3,0.1,5,0.2,6.8h-4.3l-0.2-4.6H202c-1.5,2.9-4.7,5.2-9,5.2 c-6.4,0-11.3-5.4-11.3-13.4c-0.1-8.8,5.4-14.2,11.9-14.2c4,0,6.8,1.9,8,4h0.1V12.3H206.5z M201.7,35.4c0-0.6-0.1-1.4-0.2-2 c-0.7-3.1-3.3-5.6-6.9-5.6c-5,0-7.9,4.4-7.9,10.2c0,5.3,2.6,9.8,7.8,9.8c3.2,0,6.2-2.1,7.1-5.7c0.2-0.7,0.2-1.3,0.2-2.1V35.4z"/><path fill="#FFFFFF" d="M42.8,64c0.1,1.6-1.1,2.9-3.1,2.9c-1.7,0-2.9-1.3-2.9-2.9c0-1.7,1.3-3,3-3C41.7,61,42.8,62.3,42.8,64z M37.4,97.8V71.4h4.8v26.4H37.4z"/><path fill="#FFFFFF" d="M47.5,78.6c0-2.7-0.1-5-0.2-7.1h4.3l0.3,4.4h0.1c1.3-2.5,4.4-5,8.8-5c3.7,0,9.4,2.2,9.4,11.2v15.8h-4.8 V82.6c0-4.3-1.6-7.8-6.1-7.8c-3.2,0-5.6,2.2-6.5,4.9c-0.2,0.6-0.3,1.4-0.3,2.2v15.9h-4.8V78.6z"/><path fill="#FFFFFF" d="M84,61.6c2.9-0.4,6.3-0.8,10.1-0.8c6.8,0,11.7,1.6,14.9,4.6c3.3,3,5.2,7.3,5.2,13.2c0,6-1.9,10.9-5.3,14.3 c-3.4,3.4-9.1,5.3-16.3,5.3c-3.4,0-6.2-0.2-8.6-0.4V61.6z M88.8,94.1c1.2,0.2,3,0.3,4.8,0.3c10.2,0,15.7-5.7,15.7-15.6 c0.1-8.7-4.9-14.2-14.9-14.2c-2.5,0-4.3,0.2-5.6,0.5V94.1z"/><path fill="#FFFFFF" d="M132.1,97.8l-0.4-3.3h-0.2c-1.5,2.1-4.3,3.9-8.1,3.9c-5.4,0-8.1-3.8-8.1-7.6c0-6.4,5.7-9.9,15.9-9.8v-0.5 c0-2.2-0.6-6.1-6-6.1c-2.5,0-5,0.8-6.9,2l-1.1-3.2c2.2-1.4,5.4-2.3,8.7-2.3c8.1,0,10.1,5.5,10.1,10.8v9.9c0,2.3,0.1,4.5,0.4,6.3 H132.1z M131.4,84.4c-5.3-0.1-11.2,0.8-11.2,5.9c0,3.1,2.1,4.6,4.5,4.6c3.4,0,5.6-2.2,6.4-4.4c0.2-0.5,0.3-1,0.3-1.5V84.4z"/><path fill="#FFFFFF" d="M146.6,63.9v7.6h6.9v3.7h-6.9v14.2c0,3.3,0.9,5.1,3.6,5.1c1.3,0,2.2-0.2,2.8-0.3l0.2,3.6 c-0.9,0.4-2.4,0.7-4.3,0.7c-2.2,0-4-0.7-5.2-2c-1.4-1.4-1.9-3.8-1.9-6.9V75.1h-4.1v-3.7h4.1v-6.3L146.6,63.9z"/><path fill="#FFFFFF" d="M171.4,97.8l-0.4-3.3h-0.2c-1.5,2.1-4.3,3.9-8.1,3.9c-5.4,0-8.1-3.8-8.1-7.6c0-6.4,5.7-9.9,15.9-9.8v-0.5 c0-2.2-0.6-6.1-6-6.1c-2.5,0-5,0.8-6.9,2l-1.1-3.2c2.2-1.4,5.4-2.3,8.7-2.3c8.1,0,10.1,5.5,10.1,10.8v9.9c0,2.3,0.1,4.5,0.4,6.3 H171.4z M170.7,84.4c-5.3-0.1-11.2,0.8-11.2,5.9c0,3.1,2.1,4.6,4.5,4.6c3.4,0,5.6-2.2,6.4-4.4c0.2-0.5,0.3-1,0.3-1.5V84.4z"/></g></g></a></g><a href="https://ourworldindata.org/grapher/homicides-per-100000-people-per-year" target="_blank"><text font-size="27.00" x="15.0" y="36.6" fill="#555"><tspan x="15" y="36.6">Homicides per 100,000 people per year</tspan></text></a></g><g class="LineChart"><defs><clipPath id="boundsClip-130"><rect x="19.072000000000003" y="0" width="830" height="963"></rect></clipPath></defs><g class="AxisBoxView"><g class="HorizontalAxis"><text x="29.1" y="556.5" fill="#666" text-anchor="middle" font-size="16.2">1800</text><text x="197.2" y="556.5" fill="#666" text-anchor="middle" font-size="16.2">1850</text><text x="365.4" y="556.5" fill="#666" text-anchor="middle" font-size="16.2">1900</text><text x="533.6" y="556.5" fill="#666" text-anchor="middle" font-size="16.2">1950</text><text x="735.4" y="556.5" fill="#666" text-anchor="middle" font-size="16.2">2010</text></g><g class="VerticalAxis"><text x="24.07" y="535.3" fill="#666" dominant-baseline="middle" text-anchor="end" font-size="16.2">0</text><text x="24.07" y="477.8" fill="#666" dominant-baseline="middle" text-anchor="end" font-size="16.2">1</text><text x="24.07" y="420.2" fill="#666" dominant-baseline="middle" text-anchor="end" font-size="16.2">2</text><text x="24.07" y="362.7" fill="#666" dominant-baseline="middle" text-anchor="end" font-size="16.2">3</text><text x="24.07" y="305.1" fill="#666" dominant-baseline="middle" text-anchor="end" font-size="16.2">4</text><text x="24.07" y="247.6" fill="#666" dominant-baseline="middle" text-anchor="end" font-size="16.2">5</text><text x="24.07" y="190.1" fill="#666" dominant-baseline="middle" text-anchor="end" font-size="16.2">6</text><text x="24.07" y="132.5" fill="#666" dominant-baseline="middle" text-anchor="end" font-size="16.2">7</text><text x="24.07" y="75" fill="#666" dominant-baseline="middle" text-anchor="end" font-size="16.2">8</text></g><g class="AxisGridLines"><line x1="29.07" y1="535.3" x2="735.41" y2="535.3" stroke="#ccc"></line><line x1="29.07" y1="477.8" x2="735.41" y2="477.8" stroke="#ddd" stroke-dasharray="3,2"></line><line x1="29.07" y1="420.2" x2="735.41" y2="420.2" stroke="#ddd" stroke-dasharray="3,2"></line><line x1="29.07" y1="362.7" x2="735.41" y2="362.7" stroke="#ddd" stroke-dasharray="3,2"></line><line x1="29.07" y1="305.1" x2="735.41" y2="305.1" stroke="#ddd" stroke-dasharray="3,2"></line><line x1="29.07" y1="247.6" x2="735.41" y2="247.6" stroke="#ddd" stroke-dasharray="3,2"></line><line x1="29.07" y1="190.1" x2="735.41" y2="190.1" stroke="#ddd" stroke-dasharray="3,2"></line><line x1="29.07" y1="132.5" x2="735.41" y2="132.5" stroke="#ddd" stroke-dasharray="3,2"></line><line x1="29.07" y1="75" x2="735.41" y2="75" stroke="#ddd" stroke-dasharray="3,2"></line></g><g class="AxisGridLines"><line x1="29.1" y1="535.30" x2="29.1" y2="75.00" stroke="#ddd" stroke-dasharray="3,2"></line><line x1="197.2" y1="535.30" x2="197.2" y2="75.00" stroke="#ddd" stroke-dasharray="3,2"></line><line x1="365.4" y1="535.30" x2="365.4" y2="75.00" stroke="#ddd" stroke-dasharray="3,2"></line><line x1="533.6" y1="535.30" x2="533.6" y2="75.00" stroke="#ddd" stroke-dasharray="3,2"></line><line x1="701.8" y1="535.30" x2="701.8" y2="75.00" stroke="#ddd" stroke-dasharray="3,2"></line></g></g><g clip-path="url(#boundsClip-130)"><g class="HeightedLegend clickable"><g class="legendMark"><rect x="745.408" y="364.7" width="46.392" height="14.4" fill="#fff" opacity="0"></rect><rect x="745.408" y="370.65" width="10" height="2.5" fill="#f6a324"></rect><text font-size="14.40" x="760.4" y="376.2" fill="#333"><tspan x="760.408" y="376.21999999999997">India</tspan></text></g><g class="legendMark"><rect x="745.408" y="395.8" width="41.496" height="14.4" fill="#fff" opacity="0"></rect><rect x="745.408" y="401.75" width="10" height="2.5" fill="#34983f"></rect><text font-size="14.40" x="760.4" y="407.3" fill="#333"><tspan x="760.408" y="407.32">Italy</tspan></text></g><g class="legendMark"><rect x="745.408" y="493.6" width="89.59200000000001" height="14.4" fill="#fff" opacity="0"></rect><rect x="745.408" y="499.55" width="10" height="2.5" fill="#ca2628"></rect><text font-size="14.40" x="760.4" y="505.1" fill="#333"><tspan x="760.408" y="505.12">Switzerland</tspan></text></g><g class="legendMark"><rect x="745.408" y="508" width="74.328" height="14.4" fill="#fff" opacity="0"></rect><rect x="745.408" y="513.95" width="10" height="2.5" fill="#3360a9"></rect><text font-size="14.40" x="760.4" y="519.5" fill="#333"><tspan x="760.408" y="519.52">Germany</tspan></text></g></g><g class="Lines"><rect x="29" y="75" width="706" height="460" fill="rgba(255,255,255,0)" opacity="0"></rect><g class="key-India_0"><path stroke="#f6a324" stroke-linecap="round" d="M540 380L544 390L547 394L550 397L554 396L557 393L561 392L564 394L567 394L571 394L574 392L577 405L581 396L584 392L587 392L591 386L594 385L598 379L601 372L604 371L608 382L611 370L614 358L618 372L621 383L624 371L628 366L631 361L635 350L638 348L641 347L645 337L648 336L651 339L655 333L658 328L661 330L665 317L668 295L672 271L675 270L678 287L682 290L685 302L688 304L692 309L695 307L698 319L702 321L705 332L709 340L712 358L715 355L719 363L722 367L725 370L729 370L732 374L735 372" fill="none" stroke-width="1.5"></path></g><g class="key-Italy_0"><path stroke="#34983f" stroke-linecap="round" d="M29 75L32 75L36 75L39 75L43 75L46 75L49 75L53 75L56 75L59 75L63 75L66 75L69 75L73 75L76 75L80 75L83 75L86 75L90 75L93 75L96 75L100 75L103 75L106 75L110 75L113 75L117 75L120 75L123 75L127 75L130 75L133 75L137 75L140 75L143 75L147 75L150 75L154 75L157 75L160 75L164 75L167 75L170 75L174 75L177 75L180 75L184 75L187 75L191 75L194 75L197 133L201 133L204 133L207 133L211 133L214 133L217 133L221 133L224 133L228 133L231 133L234 133L238 133L241 133L244 133L248 133L251 133L254 133L258 133L261 133L265 133L268 133L271 133L275 133L278 133L281 207L285 207L288 207L291 207L295 207L298 207L302 207L305 207L308 207L312 207L315 207L318 207L322 207L325 207L328 207L332 207L335 207L339 207L342 207L345 207L349 207L352 207L355 207L359 207L362 207L365 311L369 311L372 311L376 311L379 311L382 311L386 311L389 311L392 311L396 311L399 345L402 345L406 317L409 294L413 317L416 317L419 340L423 357L426 357L429 282L433 115L436 81L439 115L443 144L446 242L450 259L453 299L456 363L460 368L463 380L466 380L470 392L473 409L476 426L480 432L483 443L487 438L490 443L493 455L497 461L534 265L537 271L540 374L544 438L547 432L550 426L554 432L557 449L561 449L564 455L567 455L594 466L598 472L601 472L604 472L608 478L611 466L614 466L618 461L621 426L624 415L628 415L631 426L635 426L638 415L641 409L645 420L648 438L651 455L655 455L658 438L661 438L665 403L668 386L672 345L675 368L678 392L682 397L685 386L688 386L692 380L695 368L698 380L702 397L705 380L709 392L712 386L715 380L719 409L722 392L725 403L729 397L732 403" fill="none" stroke-width="1.5"></path></g><g class="key-Switzerland_0"><path stroke="#ca2628" stroke-linecap="round" d="M29 265L32 265L36 265L39 265L43 265L46 265L49 265L53 265L56 265L59 265L63 265L66 265L69 265L73 265L76 265L80 265L83 265L86 265L90 265L93 265L96 265L100 265L103 265L106 265L110 265L113 265L117 265L120 265L123 265L127 265L130 265L133 265L137 265L140 265L143 265L147 265L150 265L154 265L157 265L160 265L164 265L167 265L170 265L174 265L177 265L180 265L184 265L187 265L191 265L194 265L197 438L201 438L204 438L207 438L211 438L214 438L217 438L221 438L224 438L228 438L231 438L234 438L238 438L241 438L244 438L248 438L251 438L254 438L258 438L261 438L265 438L268 438L271 438L275 438L278 438L281 363L285 363L288 363L291 363L295 363L298 363L302 363L305 363L308 363L312 363L315 363L318 363L322 363L325 363L328 363L332 363L335 363L339 363L342 363L345 363L349 363L352 363L355 363L359 363L362 363L365 415L369 415L372 415L376 415L379 415L382 415L386 415L389 415L392 415L396 415L399 415L402 415L406 415L409 415L413 415L416 415L419 415L423 415L426 415L429 415L433 415L436 415L439 415L443 415L446 415L450 455L453 455L456 455L460 455L463 455L466 455L470 455L473 455L476 455L480 455L483 455L487 455L490 455L493 455L497 455L500 455L503 455L507 455L510 455L513 455L517 455L520 455L524 455L527 455L530 455L534 489L537 462L540 468L544 471L547 474L550 470L554 497L557 491L561 497L564 482L567 501L571 494L574 476L577 496L581 490L584 502L587 497L591 488L594 493L598 504L601 494L604 480L608 482L611 496L614 480L618 481L621 485L624 486L628 493L631 482L635 481L638 466L641 457L645 454L648 481L651 452L655 478L658 466L661 465L665 462L668 449L672 456L675 450L678 443L682 458L685 478L688 472L692 455L695 489L698 478L702 490L705 470L709 476L712 496L715 483L719 486L722 503L725 501" fill="none" stroke-width="1.5"></path></g><g class="key-Germany_0"><path stroke="#3360a9" stroke-linecap="round" d="M29 397L32 397L36 397L39 397L43 397L46 397L49 397L53 397L56 397L59 397L63 397L66 397L69 397L73 397L76 397L80 397L83 397L86 397L90 397L93 397L96 397L100 397L103 397L106 397L110 397L113 397L117 397L120 397L123 397L127 397L130 397L133 397L137 397L140 397L143 397L147 397L150 397L154 397L157 397L160 397L164 397L167 397L170 397L174 397L177 397L180 397L184 397L187 397L191 397L194 397L197 449L201 449L204 449L207 449L211 449L214 449L217 449L221 449L224 449L228 449L231 449L234 449L238 449L241 449L244 449L248 449L251 449L254 449L258 449L261 449L265 449L268 449L271 449L275 449L278 449L281 443L285 443L288 443L291 443L295 443L298 443L302 443L305 443L308 443L312 443L315 443L318 443L322 443L325 443L328 443L332 443L335 443L339 443L342 443L345 443L349 443L352 443L355 443L359 443L362 443L365 415L369 415L372 415L376 415L379 415L382 415L386 415L389 415L392 415L396 415L399 415L402 415L406 415L409 415L413 415L416 415L419 415L423 415L426 415L429 415L433 415L436 415L439 415L443 415L446 415L450 432L453 432L456 432L460 432L463 432L466 432L470 432L473 432L476 432L480 432L483 432L487 432L490 432L493 432L497 432L500 432L503 432L507 432L510 432L513 432L517 432L520 432L524 432L527 432L530 432L534 472L537 472L540 484L544 480L547 480L550 477L554 482L557 484L561 484L564 479L567 483L571 476L574 477L577 477L581 471L584 469L587 469L591 467L594 471L598 461L601 453L604 459L608 458L611 465L614 468L618 465L621 463L624 467L628 466L631 472L635 469L638 462L641 463L645 466L648 464L651 467L655 465L658 470L661 474L665 477L668 477L672 469L675 467L678 467L682 468L685 470L688 473L692 483L695 486L698 485L702 493L705 496L709 493L712 497L715 499L719 504L722 501L725 504L729 504L732 504L735 502" fill="none" stroke-width="1.5"></path></g></g></g></g><g style="fill: #777;" class="SourcesFooter"><g style="fill: #777;" class="clickable"><text font-size="12.60" x="15.0" y="581.6"><tspan x="15" y="581.58">Source: Clio Infra</tspan></text></g><text font-size="12.60" x="585.1" y="581.6"><tspan x="585.142" y="581.58"><a target='_blank' style='fill: #777;' href='https://ourworldindata.org/homicides/'>OurWorldInData.org/homicides/</a> • <a style="fill: #777;" href="http://creativecommons.org/licenses/by-sa/4.0/deed.en_US" target="_blank">CC BY-SA</a></tspan></text></g></g></svg>
